X:1
T:The water is wide
T:The water is wide
T:La mer est immense
T:air traditionnel d'Ecosse, XVIIème siècle
C:air traditionnel d'Ecosse, XVIIème siècle
%%score 1 { 2 | 3 }
L:1/8
Q:1/4=50
M:4/4
K:F
V:1 treble nm="Hautbois"
V:2 treble nm="Piano"
V:3 bass 
V:1
"^Largo" z C | F>G A4- AG | F>D C4- CF | F>E F4- FG/A/ | B>A G4- GG | A>B c4- cB/A/ | G>F A4- AG | %7
 F>D C4- CC | D>F F6 |] %9
V:2
 z z | F/A/c/A/ F/A/c/A/ F/A/c/A/ F/A/c/A/ | F/B/d/B/ F/A/c/A/ F/A/c/A/ F/A/c/A/ | %3
 F/A/d/A/ F/A/d/A/ F/A/d/A/ F/A/d/A/ | F/B/d/B/ E/G/c/G/ E/G/c/G/ E/G/c/G/ | %5
 E/G/c/G/ F/A/c/A/ F/A/c/A/ F/A/c/A/ | F/A/d/A/ F/A/d/A/ F/A/d/A/ F/A/d/A/ | %7
 F/B/d/B/ F/A/c/A/ F/A/c/A/ F/A/c/A/ | F/B/d/B/ F/A/c/A/ F3 z |] %9
V:3
 z2 | [F,,F,]2 [F,,F,]2 [F,,F,]2 [F,,F,]2 | [B,,,B,,]2 [F,,F,]2 [F,,F,]2 [F,,F,]2 | %3
 [D,,D,]2 [D,,D,]2 [D,,D,]2 [D,,D,]2 | [B,,,B,,]2 [C,,C,]2 [C,,C,]2 [C,,C,]2 | %5
 [C,,C,]2 [F,,F,]2 [F,,F,]2 [F,,F,]2 | [D,,D,]2 [D,,D,]2 [D,,D,]2 [D,,D,]2 | %7
 [B,,,B,,]2 [F,,F,]2 [F,,F,]2 [F,,F,]2 | [B,,,B,,]2 [F,,F,]2 z4 |] %9

